bvspca/static/svg/fax.svg

<?xml version="1.0" encoding="UTF-8" standalone="no"?><!DOCTYPE svg PUBLIC "-//W3C//DTD SVG 1.1//EN" "http://www.w3.org/Graphics/SVG/1.1/DTD/svg11.dtd"><svg width="100%" height="100%" viewBox="0 0 34 34" version="1.1" xmlns="http://www.w3.org/2000/svg" xmlns:xlink="http://www.w3.org/1999/xlink" xml:space="preserve" xmlns:serif="http://www.serif.com/" style="fill-rule:evenodd;clip-rule:evenodd;stroke-linejoin:round;stroke-miterlimit:1.41421;"><path d="M26.867,18.6l-4.133,0l0,-4.134l4.133,0l0,4.134Zm-4.132,10.333l-12.4,0l0,-4.133l12.4,0l0,4.133Zm-2.068,-10.333l-4.133,0l0,-4.134l4.133,0l0,4.134Zm-10.333,-14.468l12.4,0l0,4.134l-12.4,0l0,-4.134Zm20.667,4.134l-4.134,0l0,-6.2c0,-1.143 -0.923,-2.066 -2.066,-2.066l-16.534,0c-1.142,0 -2.067,0.923 -2.067,2.066l0,6.2l-4.133,0c-1.142,0 -2.067,0.925 -2.067,2.067l0,16.534c0,1.142 0.925,2.066 2.067,2.066l4.133,0l0,2.068c0,1.141 0.925,2.066 2.067,2.066l16.534,0c1.143,0 2.066,-0.925 2.066,-2.066l0,-2.068l4.134,0c1.143,0 2.067,-0.924 2.067,-2.066l0,-16.534c0,-1.142 -0.924,-2.067 -2.067,-2.067" style="fill:#f47c22;fill-rule:nonzero;"/></svg>

<svg viewBox="0 0 34 34" xmlns="http://www.w3.org/2000/svg" fill-rule="evenodd" clip-rule="evenodd" stroke-linejoin="round" stroke-miterlimit="1.414"><path d="M26.867 18.6h-4.133v-4.134h4.133V18.6zm-4.132 10.333h-12.4V24.8h12.4v4.133zM20.667 18.6h-4.133v-4.134h4.133V18.6zM10.334 4.132h12.4v4.134h-12.4V4.132zm20.667 4.134h-4.134v-6.2A2.063 2.063 0 0 0 24.801 0H8.267A2.065 2.065 0 0 0 6.2 2.066v6.2H2.067A2.066 2.066 0 0 0 0 10.333v16.534c0 1.142.925 2.066 2.067 2.066H6.2v2.068c0 1.141.925 2.066 2.067 2.066h16.534a2.065 2.065 0 0 0 2.066-2.066v-2.068h4.134a2.065 2.065 0 0 0 2.067-2.066V10.333a2.066 2.066 0 0 0-2.067-2.067" fill="#f47c22" fill-rule="nonzero"/></svg>
